X:1
T:Clifton (Brabham), SM
T:Clifton (Brabham), SM
T:James Brabham, 1840
T:Public Domain Courtesy of the Cyber Hymnal™
C:James Brabham, 1840
Z:Public Domain
Z:Courtesy of the Cyber Hymnal™
%%score ( 1 2 ) 3
L:1/8
Q:1/4=103
M:2/4
K:Eb
V:1 treble 
V:2 treble 
V:3 bass 
V:1
 [B,E]2 | [EG]2 [EA]2 | [EF]2 [DB]2 | [CE]2 [DF]2 | [EG]2 [EB]2 | [F=A]2 [Ec]2 | [DB]2 [FB]2 | %7
 [Gc]2 [Fd]2 | [Ee]2 [Ec]2 | [E=A]2 [EB]2 | [Ec]2 [DB]2 | E2 [EF]2 | [EG]2 [DF]2 | E2 |] %14
V:2
 x2 | x4 | x4 | x4 | x4 | x4 | x4 | x4 | x4 | x4 | x4 | E2 x2 | x4 | E2 |] %14
V:3
 [E,G,]2 | [C,C]2 [A,,C]2 | [B,,B,]2 [B,,A,]2 | [C,G,]2 [B,,B,]2 | [E,B,]2 [G,B,]2 | %5
 [F,C]2 [F,=A,]2 | [B,,B,]2 [B,D]2 | [B,E]2 [A,B,]2 | [G,B,]2 [_G,B,]2 | [F,C]2 [F,B,]2 | %10
 [F,=A,]2 [B,,_A,]2 | [C,G,]2 [A,,C]2 | [B,,B,]2 [B,,A,]2 | [E,G,]2 |] %14

